modules/feathericon/icons/question.svg

<?xml version="1.0" encoding="UTF-8"?>
<svg width="14px" height="14px" viewBox="0 0 14 14" version="1.1" xmlns="http://www.w3.org/2000/svg" xmlns:xlink="http://www.w3.org/1999/xlink">
    <!-- Generator: sketchtool 48.1 (47250) - http://www.bohemiancoding.com/sketch -->
    <title>question</title>
    <desc>Created with sketchtool.</desc>
    <defs></defs>
    <g id="web-app" stroke="none" stroke-width="1" fill="none" fill-rule="evenodd">
        <g id="question" fill="#000000">
            <path d="M7,14 C3.13400675,14 0,10.8659932 0,7 C0,3.13400675 3.13400675,0 7,0 C10.8659932,0 14,3.13400675 14,7 C14,10.8659932 10.8659932,14 7,14 Z M6,11.5 C6,11.5 6,12 6.5,12 L7.5,12 C8,12 8,11.5 8,11.5 L8,10.5 C8,10.5 8,10 7.5,10 C7.5,10 6.5,10 6.5,10 C6,10 6,10.5 6,10.5 L6,11.5 Z M6,8.55942631 C6,9.00000015 6.5,8.9967214 6.5,8.9967214 L7.5,8.9967214 C7.5,8.9967214 8.04867324,9.00000015 8.04867324,8.55942631 C8.04867324,7.24754105 9.43500024,6.28321061 9.84808357,5.50173995 C10.2979361,4.62377053 10.0042575,2 7.00860263,2 C5,2 4,3.00897517 4,4.5 C4,4.5 4,5 4.5,5 L5.5,5 C6,5 6,4.5 6,4.5 C6,4.5 6,3.5 7,3.5 C8.04867324,3.5 8,4.5 8,5 C8,5.74016844 7.5,6.22136175 7,6.47323647 C7,6.47323647 6,6.91860888 6,8.55942631 Z" id="Shape"></path>
        </g>
    </g>
</svg>

<svg width="14" height="14" xmlns="http://www.w3.org/2000/svg"><path d="M7 14A7 7 0 1 1 7 0a7 7 0 0 1 0 14zm-1-2.5s0 .5.5.5h1c.5 0 .5-.5.5-.5v-1s0-.5-.5-.5h-1c-.5 0-.5.5-.5.5v1zm0-2.94c0 .44.5.437.5.437h1s.549.003.549-.438c0-1.311 1.386-2.276 1.8-3.057.449-.878.155-3.502-2.84-3.502C5 2 4 3.009 4 4.5c0 0 0 .5.5.5h1c.5 0 .5-.5.5-.5s0-1 1-1c1.049 0 1 1 1 1.5 0 .74-.5 1.221-1 1.473 0 0-1 .446-1 2.086z" fill="#000" fill-rule="evenodd"/></svg>
